!!! OTL: Berkowitz398
!!! Chapter: 1
!!! Section: III
!!! Page: 98
!!! Mode: 
!!! Encoder: DJB
**kern
*staff1
*I"Piano
=1-
*clefG2
*k[b-e-a-d-]
*A-:
*M4/4
4.a-/
16a-/LL
16a-/JJ
8a-\L
8a-\
8cc\
8ee-\J
=2
[4ddn\
16dd\LL]
16ee-\
16ff\
16ee-\JJ
4b-\
8.ee-\L
16ee-\Jk
=3
4a-/
8.ee-\L
16ee-\Jk
4g/
8.ee-\L
16ee-\Jk
=4
[2f/
12f/L]
12g/
12a-/J
12b-\L
12cc\
12ddn\J
=5
8ee-\L
16ee-\L
16ee-\JJ
8ee-\L
8ee-\J
8ee-\L
8b-\
8g\
8b-\J
=6
!!linebreak:original
8ee-\L
8b-\
8g\
8f\J
4e-/
8.e-/L
16e-/Jk
=7
[2dd-\
12dd-/L]
12e-/
12f/J
12g/L
12a-/
12b-/J
=8
2.cc\
8.c/L
16c/Jk
=9
[2b-\
12b-/L]
12c/
12dn/J
12en/L
12f/
12g/J
=10
2.a-/
8.a-/L
16g/Jk
=11
4f/
8.ff\L
16ee-\Jk
8dd-\L
8cc\
8b-\
8a-\J
=12
!!linebreak:original
8g/L
8a-/
8b-/
8g/J
8e-/L
8en/
8f/
8g/J
=13
4.a-/
16a-/LL
16a-/JJ
8a-\L
8cc\
8ee-\
8cc\J
=14
8a-/L
8e-/
8c/
8e-/J
4a-/
4r
==
*-
